packages/foundations/assets/icons/functional/images/security/shield_check_16.svg

<svg width="16" height="16" viewBox="0 0 16 16" fill="none" xmlns="http://www.w3.org/2000/svg">
<g clip-path="url(#clip0_187_310)">
<path fill-rule="evenodd" clip-rule="evenodd" d="M8.00001 1.60001C8.0919 1.60001 8.18447 1.62161 8.27018 1.66481L12.5922 3.89601C12.7184 3.95921 12.8 4.10401 12.8 4.26401V6.40001C12.8 9.99841 11.2503 12.6816 8.15224 14.3616C8.10493 14.3872 8.05213 14.4 8.00001 14.4C7.9479 14.4 7.8951 14.3872 7.84778 14.3616C4.74973 12.6816 3.20001 9.99841 3.20001 6.40001V4.26401C3.20001 4.10401 3.28161 3.95921 3.40778 3.89601L7.72984 1.66481C7.81555 1.62161 7.90813 1.60001 8.00001 1.60001ZM9.32926 5.83459L7.35391 7.6689L6.67076 7.03453C6.33392 6.72175 5.78947 6.72175 5.45264 7.03453C5.1158 7.34732 5.1158 7.85289 5.45264 8.16568L6.74485 9.36562C6.91283 9.52161 7.13337 9.60001 7.35391 9.60001C7.57444 9.60001 7.79498 9.52161 7.96297 9.36562L10.5474 6.96574C10.8842 6.65295 10.8842 6.14738 10.5474 5.83459C10.2106 5.52181 9.6661 5.52181 9.32926 5.83459Z" fill="#1A1C1F"/>
</g>
<defs>
<clipPath id="clip0_187_310">
<rect width="16" height="16" fill="white"/>
</clipPath>
</defs>
</svg>

<svg xmlns="http://www.w3.org/2000/svg" width="16" height="16" fill="none"><g clip-path="url(#a)"><path fill="#1A1C1F" fill-rule="evenodd" d="M8 1.6a.6.6 0 0 1 .27.065l4.322 2.231a.41.41 0 0 1 .208.368V6.4c0 3.598-1.55 6.282-4.648 7.962a.32.32 0 0 1-.304 0C4.75 12.682 3.2 9.998 3.2 6.4V4.264c0-.16.082-.305.208-.368L7.73 1.665A.6.6 0 0 1 8 1.6m1.33 4.235L7.353 7.669l-.683-.634a.91.91 0 0 0-1.218 0 .76.76 0 0 0 0 1.13l1.292 1.2a.9.9 0 0 0 .609.235c.22 0 .441-.078.609-.234l2.584-2.4a.76.76 0 0 0 0-1.131.91.91 0 0 0-1.218 0" clip-rule="evenodd"/></g><defs><clipPath id="a"><path fill="#fff" d="M0 0h16v16H0z"/></clipPath></defs></svg>
